images/originals/solidus-light-logo.svg

<svg width="364" height="90" viewBox="0 0 364 90" xmlns="http://www.w3.org/2000/svg"><title>solidus-dark-logo</title><g fill="none" fill-rule="evenodd"><path d="M.34.34C18.77.27 37.21.27 55.64.35c.04 29.75.08 59.51-.02 89.26-18.42.06-36.84.06-55.26 0C.22 59.86.27 30.1.34.34z" fill="#EB8F35"/><path d="M175.54 1.06c4.74 1.93 9.69 4.32 12.79 8.55 2.65 3.56 2.5 8.15 2.68 12.36.04 9.36 0 18.72-.01 28.08.08 2.39-.02 4.9.92 7.16 2.09 2.76 5.48 4.06 8.34 5.86-1.41 2.67-2.87 5.32-4.48 7.88-4.87-2.35-10.12-4.86-13.1-9.6-2.62-4.31-2.04-9.54-2.09-14.35-.06-9.6.15-19.2-.1-28.8.09-5.22-5.52-7.16-9.19-9.49 1.36-2.58 2.79-5.12 4.24-7.65zM8.11 8.12c13.25-.13 26.52-.13 39.77-.01.1 24.57.18 49.15-.04 73.71-13.24.21-26.49.15-39.74.04-.23-24.58-.23-49.17.01-73.74zM208.47 9.24c3.09-1.78 7.54 1.19 7.07 4.75.19 4.36-6.13 6.55-8.73 3.12-2.38-2.31-1.25-6.57 1.66-7.87zM262.38 8.81c3.32-.13 6.63-.14 9.95-.08.08 20.8.12 41.61-.02 62.42-3.26.08-6.52.07-9.77-.05l-.33-4.58c-6.05 3.52-13.24 5.51-20.23 4.18-10.29-1.19-19.14-9.56-21.07-19.71-2.69-12.09 5.61-25.18 17.5-28.32 8.03-2.55 16.78-.73 23.92 3.46.1-5.77 0-11.55.05-17.32z" fill="#2D2B28"/><path d="M20.24 18.18c4.93 2.09 10.56 5.33 11.29 11.19.66 9.85-.31 19.76.39 29.6.12 3.93 4.36 5.24 7.02 7.24a74.82 74.82 0 0 1-3.14 5.77C30.82 70 25.08 66.71 24.44 60.81c-.47-8.94.07-17.91-.17-26.86-.12-1.78-.21-3.63-.96-5.27-1.82-1.93-4.16-3.26-6.33-4.75 1.05-1.94 2.14-3.85 3.26-5.75z" fill="#EB8F35"/><path d="M84.42 27.43c3.37-3.84 8.56-5.57 13.54-5.87 7.14-.38 14.12 2.33 19.86 6.45-1.77 2.39-3.59 4.76-5.59 6.96-5.22-3.79-12.54-7.33-18.69-3.51-2.98 1.48-4 6.08-.83 7.92 6.32 2.77 13.61 2.23 19.96 4.97 3.76 1.66 6.83 5.39 6.86 9.61.69 6.91-4.31 13.44-10.72 15.61-10.29 3.64-22.04.49-30.08-6.62 1.9-2.49 4.1-4.71 6.37-6.86 4.99 3.87 11.01 7.57 17.62 6.39 3.81-.36 8.49-3.99 6.32-8.19-2.32-2.96-6.44-2.91-9.79-3.7-5.51-1.04-11.49-2.13-15.75-6.07-4.47-4.75-3.29-12.58.92-17.09zM141.46 22.71c7.13-2.17 15.15-1.38 21.68 2.23 7.14 4.03 12.18 11.77 12.42 20.03.55 7.53-2.8 15.2-8.56 20.05-10.01 8.43-26.5 8.16-35.83-1.19-5.99-5.72-8.91-14.65-6.92-22.75 1.9-8.6 8.69-15.99 17.21-18.37zM277.53 21.64c3.39-.04 6.79-.24 10.16.22-.15 9.07-.05 18.14-.07 27.21-.24 5.83 4.35 11.71 10.42 11.76 5.97.86 11.65-3.81 12.28-9.75.5-9.84-.35-19.74.41-29.57 3.15.55 7.07-.85 9.75.78.19 9.25.02 18.51.07 27.76.05 5.63-2.23 11.28-6.38 15.12-7.52 7.36-20.5 7.84-28.71 1.37-5.06-3.88-8.03-10.16-7.96-16.52-.01-9.46-.05-18.92.03-28.38zM332.28 24.35c9.44-5.25 21.15-2.18 29.48 3.81-1.83 2.35-3.65 4.71-5.65 6.92-3.21-2.01-6.46-4.32-10.31-4.82-3.69-.59-8.08.04-10.45 3.23-1.63 2.08-.66 5.36 1.8 6.3 7.04 2.81 15.4 1.79 21.87 6.16 4.4 2.95 5.58 9.06 3.76 13.82-2.04 5.93-7.79 10.02-13.86 10.93-9.39 1.99-19.32-1.41-26.36-7.72 2.07-2.35 4.25-4.59 6.48-6.78 3.82 3.04 8.08 5.97 13.08 6.48 3.94.5 8.61-.4 10.89-3.98 1.49-2.92-1-6.1-3.91-6.68-7.47-2.08-16.45-1.9-22.13-7.96-5.11-6.3-1.39-16.15 5.31-19.71zM205.58 29.15c3.43-.02 6.86-.04 10.28.13.33 9.24.06 18.48.15 27.72-.05 4.65.28 9.34-.51 13.95-3.27.35-6.58.28-9.86.19-.13-14-.03-27.99-.06-41.99z" fill="#2D2B28"/><path d="M146.37 31.46c6.65-1.48 14.21 1.79 17.06 8.12 3.52 7.07.72 16.86-6.62 20.25-7.51 4-18.15.64-21.21-7.51-3.74-8.35 1.48-19.42 10.77-20.86zM242.42 31.65c7.37-2.07 16.07 2 18.43 9.46 2.78 7.4-1.07 16.52-8.57 19.28-7.3 3.04-16.81-.35-19.85-7.82-3.59-8.17.92-19.05 9.99-20.92z" fill="#FFF"/></g></svg>

<?xml version="1.0" encoding="UTF-8" standalone="no"?>
<svg width="364px" height="90px" viewBox="0 0 364 90" version="1.1" xmlns="http://www.w3.org/2000/svg" xmlns:xlink="http://www.w3.org/1999/xlink">
    <!-- Generator: Sketch 3.6.1 (26313) - http://www.bohemiancoding.com/sketch -->
    <title>solidus-dark-logo</title>
    <desc>Created with Sketch.</desc>
    <defs></defs>
    <g id="Page-1" stroke="none" stroke-width="1" fill="none" fill-rule="evenodd">
        <g id="solidus-dark-logo">
            <path d="M0.34,0.34 C18.77,0.27 37.21,0.27 55.64,0.35 C55.68,30.1 55.72,59.86 55.62,89.61 C37.2,89.67 18.78,89.67 0.36,89.61 C0.22,59.86 0.27,30.1 0.34,0.34 L0.34,0.34 Z" id="Shape" fill="#EB8F35"></path>
            <path d="M175.54,1.06 C180.28,2.99 185.23,5.38 188.33,9.61 C190.98,13.17 190.83,17.76 191.01,21.97 C191.05,31.33 191.01,40.69 191,50.05 C191.08,52.44 190.98,54.95 191.92,57.21 C194.01,59.97 197.4,61.27 200.26,63.07 C198.85,65.74 197.39,68.39 195.78,70.95 C190.91,68.6 185.66,66.09 182.68,61.35 C180.06,57.04 180.64,51.81 180.59,47 C180.53,37.4 180.74,27.8 180.49,18.2 C180.58,12.98 174.97,11.04 171.3,8.71 C172.66,6.13 174.09,3.59 175.54,1.06 L175.54,1.06 Z" id="Shape" fill="#2D2B28"></path>
            <path d="M8.11,8.12 C21.36,7.99 34.63,7.99 47.88,8.11 C47.98,32.68 48.06,57.26 47.84,81.82 C34.6,82.03 21.35,81.97 8.1,81.86 C7.87,57.28 7.87,32.69 8.11,8.12 L8.11,8.12 Z" id="Shape" fill="#2D2B28"></path>
            <path d="M208.47,9.24 C211.56,7.46 216.01,10.43 215.54,13.99 C215.73,18.35 209.41,20.54 206.81,17.11 C204.43,14.8 205.56,10.54 208.47,9.24 L208.47,9.24 Z" id="Shape" fill="#2D2B28"></path>
            <path d="M262.38,8.81 C265.7,8.68 269.01,8.67 272.33,8.73 C272.41,29.53 272.45,50.34 272.31,71.15 C269.05,71.23 265.79,71.22 262.54,71.1 C262.43,69.57 262.32,68.04 262.21,66.52 C256.16,70.04 248.97,72.03 241.98,70.7 C231.69,69.51 222.84,61.14 220.91,50.99 C218.22,38.9 226.52,25.81 238.41,22.67 C246.44,20.12 255.19,21.94 262.33,26.13 C262.43,20.36 262.33,14.58 262.38,8.81 L262.38,8.81 Z" id="Shape" fill="#2D2B28"></path>
            <path d="M20.24,18.18 C25.17,20.27 30.8,23.51 31.53,29.37 C32.19,39.22 31.22,49.13 31.92,58.97 C32.04,62.9 36.28,64.21 38.94,66.21 C37.98,68.18 36.93,70.1 35.8,71.98 C30.82,70 25.08,66.71 24.44,60.81 C23.97,51.87 24.51,42.9 24.27,33.95 C24.15,32.17 24.06,30.32 23.31,28.68 C21.49,26.75 19.15,25.42 16.98,23.93 C18.03,21.99 19.12,20.08 20.24,18.18 L20.24,18.18 Z" id="Shape" fill="#EB8F35"></path>
            <path d="M84.42,27.43 C87.79,23.59 92.98,21.86 97.96,21.56 C105.1,21.18 112.08,23.89 117.82,28.01 C116.05,30.4 114.23,32.77 112.23,34.97 C107.01,31.18 99.69,27.64 93.54,31.46 C90.56,32.94 89.54,37.54 92.71,39.38 C99.03,42.15 106.32,41.61 112.67,44.35 C116.43,46.01 119.5,49.74 119.53,53.96 C120.22,60.87 115.22,67.4 108.81,69.57 C98.52,73.21 86.77,70.06 78.73,62.95 C80.63,60.46 82.83,58.24 85.1,56.09 C90.09,59.96 96.11,63.66 102.72,62.48 C106.53,62.12 111.21,58.49 109.04,54.29 C106.72,51.33 102.6,51.38 99.25,50.59 C93.74,49.55 87.76,48.46 83.5,44.52 C79.03,39.77 80.21,31.94 84.42,27.43 L84.42,27.43 Z" id="Shape" fill="#2D2B28"></path>
            <path d="M141.46,22.71 C148.59,20.54 156.61,21.33 163.14,24.94 C170.28,28.97 175.32,36.71 175.56,44.97 C176.11,52.5 172.76,60.17 167,65.02 C156.99,73.45 140.5,73.18 131.17,63.83 C125.18,58.11 122.26,49.18 124.25,41.08 C126.15,32.48 132.94,25.09 141.46,22.71 L141.46,22.71 Z" id="Shape" fill="#2D2B28"></path>
            <path d="M277.53,21.64 C280.92,21.6 284.32,21.4 287.69,21.86 C287.54,30.93 287.64,40 287.62,49.07 C287.38,54.9 291.97,60.78 298.04,60.83 C304.01,61.69 309.69,57.02 310.32,51.08 C310.82,41.24 309.97,31.34 310.73,21.51 C313.88,22.06 317.8,20.66 320.48,22.29 C320.67,31.54 320.5,40.8 320.55,50.05 C320.6,55.68 318.32,61.33 314.17,65.17 C306.65,72.53 293.67,73.01 285.46,66.54 C280.4,62.66 277.43,56.38 277.5,50.02 C277.49,40.56 277.45,31.1 277.53,21.64 L277.53,21.64 Z" id="Shape" fill="#2D2B28"></path>
            <path d="M332.28,24.35 C341.72,19.1 353.43,22.17 361.76,28.16 C359.93,30.51 358.11,32.87 356.11,35.08 C352.9,33.07 349.65,30.76 345.8,30.26 C342.11,29.67 337.72,30.3 335.35,33.49 C333.72,35.57 334.69,38.85 337.15,39.79 C344.19,42.6 352.55,41.58 359.02,45.95 C363.42,48.9 364.6,55.01 362.78,59.77 C360.74,65.7 354.99,69.79 348.92,70.7 C339.53,72.69 329.6,69.29 322.56,62.98 C324.63,60.63 326.81,58.39 329.04,56.2 C332.86,59.24 337.12,62.17 342.12,62.68 C346.06,63.18 350.73,62.28 353.01,58.7 C354.5,55.78 352.01,52.6 349.1,52.02 C341.63,49.94 332.65,50.12 326.97,44.06 C321.86,37.76 325.58,27.91 332.28,24.35 L332.28,24.35 Z" id="Shape" fill="#2D2B28"></path>
            <path d="M205.58,29.15 C209.01,29.13 212.44,29.11 215.86,29.28 C216.19,38.52 215.92,47.76 216.01,57 C215.96,61.65 216.29,66.34 215.5,70.95 C212.23,71.3 208.92,71.23 205.64,71.14 C205.51,57.14 205.61,43.15 205.58,29.15 L205.58,29.15 Z" id="Shape" fill="#2D2B28"></path>
            <path d="M146.37,31.46 C153.02,29.98 160.58,33.25 163.43,39.58 C166.95,46.65 164.15,56.44 156.81,59.83 C149.3,63.83 138.66,60.47 135.6,52.32 C131.86,43.97 137.08,32.9 146.37,31.46 L146.37,31.46 Z" id="Shape" fill="#FFFFFF"></path>
            <path d="M242.42,31.65 C249.79,29.58 258.49,33.65 260.85,41.11 C263.63,48.51 259.78,57.63 252.28,60.39 C244.98,63.43 235.47,60.04 232.43,52.57 C228.84,44.4 233.35,33.52 242.42,31.65 L242.42,31.65 Z" id="Shape" fill="#FFFFFF"></path>
        </g>
    </g>
</svg>
